SVG_Azure_All/O365 - API Twitter.svg

<?xml version="1.0" encoding="UTF-8" standalone="no"?>
<!-- Generated by Microsoft Visio, SVG Export O365 - API Twitter.svg Page-1 -->

<svg
   xmlns:dc="http://purl.org/dc/elements/1.1/"
   xmlns:cc="http://creativecommons.org/ns#"
   xmlns:rdf="http://www.w3.org/1999/02/22-rdf-syntax-ns#"
   xmlns:svg="http://www.w3.org/2000/svg"
   xmlns="http://www.w3.org/2000/svg"
   xmlns:sodipodi="http://sodipodi.sourceforge.net/DTD/sodipodi-0.dtd"
   xmlns:inkscape="http://www.inkscape.org/namespaces/inkscape"
   width="0.78739941in"
   height="0.78739941in"
   viewBox="0 0 56.692756 56.692898"
   xml:space="preserve"
   class="st3"
   version="1.1"
   id="svg35"
   sodipodi:docname="O365 - API Twitter.svg"
   style="font-size:12px;overflow:visible;color-interpolation-filters:sRGB;fill:none;fill-rule:evenodd;stroke-linecap:square;stroke-miterlimit:3"
   inkscape:version="0.92.5 (2060ec1f9f, 2020-04-08)"><metadata
   id="metadata41"><rdf:RDF><cc:Work
       rdf:about=""><dc:format>image/svg+xml</dc:format><dc:type
         rdf:resource="http://purl.org/dc/dcmitype/StillImage" /></cc:Work></rdf:RDF></metadata><defs
   id="defs39" /><sodipodi:namedview
   pagecolor="#ffffff"
   bordercolor="#666666"
   borderopacity="1"
   objecttolerance="10"
   gridtolerance="10"
   guidetolerance="10"
   inkscape:pageopacity="0"
   inkscape:pageshadow="2"
   inkscape:window-width="640"
   inkscape:window-height="480"
   id="namedview37"
   showgrid="false"
   inkscape:zoom="1.8365233"
   inkscape:cx="37.795184"
   inkscape:cy="18.897555"
   inkscape:window-x="0"
   inkscape:window-y="0"
   inkscape:window-maximized="0"
   inkscape:current-layer="svg35" />
	<style
   type="text/css"
   id="style2">
	<![CDATA[
		.st1 {fill:#5da7dc;stroke:none;stroke-width:0.749997}
		.st2 {fill:#ffffff;stroke:none;stroke-width:0.749997}
		.st3 {fill:none;fill-rule:evenodd;font-size:12px;overflow:visible;stroke-linecap:square;stroke-miterlimit:3}
	]]>
	</style>

	<g
   id="g33"
   transform="translate(-5.6693772,-5.6693014)">
		<title
   id="title4">Page-1</title>
		<g
   id="group2691-1"
   transform="translate(5.66929,-34.0157)">
			<title
   id="title6">O365 - API Twitter</title>
			<desc
   id="desc8">This package will provide stencils to visually represent Power Platform: Power Bi, Power Apps, Power Virtual Agents and/or Power Automate devices, architectures or solutions diagrams. It will provide stencils to visually represent features, systems, processes and architectures that use these technologies.</desc>
			<g
   id="group2692-2">
				<title
   id="title10">Page-1</title>
				<g
   id="group2693-3">
					<title
   id="title12">Power Automate API: Twitter</title>
					<g
   id="group2694-4">
						<title
   id="title14">rect5924</title>
						<g
   id="shape2695-5">
							<title
   id="title16">Sheet.2695</title>
							<rect
   x="0"
   y="39.685001"
   width="56.692902"
   height="56.692902"
   class="st1"
   id="rect18"
   style="fill:#5da7dc;stroke:none;stroke-width:0.74999702" />
						</g>
					</g>
					<g
   id="group2696-7"
   transform="translate(11.3628,-12.4522)">
						<title
   id="title22">path5926</title>
						<g
   id="shape2697-8">
							<title
   id="title24">Sheet.2697</title>
							<path
   d="m 38.32,68.82 a 15.7145,15.7145 0 0 1 -4.48,1.2 7.85723,7.85723 -180 0 0 3.51,-4.34 A 15.7145,15.7145 0 0 1 32.4,67.61 7.85723,7.85723 -180 0 0 18.97,74.74 22.242,22.242 0 0 1 2.78,66.53 7.85723,7.85723 -180 0 0 5.2,77.04 7.85723,7.85723 0 0 1 1.69,76.07 7.85723,7.85723 -180 0 0 7.98,83.81 L 5.92,84.04 H 4.47 a 7.85723,7.85723 -180 0 0 7.38,5.45 15.7145,15.7145 0 0 1 -9.8,3.38 H 0 a 22.242,22.242 -180 0 0 12.09,3.51 c 14.51,0 22.36,-11.97 22.36,-22.36 0,-0.32 0,-0.64 0,-0.97 a 15.9562,15.9562 -180 0 0 3.87,-4.23 z"
   class="st2"
   id="path26"
   inkscape:connector-curvature="0"
   style="fill:#ffffff;stroke:none;stroke-width:0.74999702" />
						</g>
					</g>
				</g>
			</g>
		</g>
	</g>
</svg>

<?xml version="1.0" encoding="UTF-8" standalone="no"?>
<!DOCTYPE svg PUBLIC "-//W3C//DTD SVG 1.1//EN" "http://www.w3.org/Graphics/SVG/1.1/DTD/svg11.dtd">
<!-- Generated by Microsoft Visio, SVG Export O365 - API Twitter.svg Page-1 -->
<svg xmlns="http://www.w3.org/2000/svg" xmlns:xlink="http://www.w3.org/1999/xlink" xmlns:ev="http://www.w3.org/2001/xml-events"
		width="0.944882in" height="1.33858in" viewBox="0 0 68.0315 96.378" xml:space="preserve" color-interpolation-filters="sRGB"
		class="st3">
	<style type="text/css">
	<![CDATA[
		.st1 {fill:#5da7dc;stroke:none;stroke-width:0.749997}
		.st2 {fill:#ffffff;stroke:none;stroke-width:0.749997}
		.st3 {fill:none;fill-rule:evenodd;font-size:12px;overflow:visible;stroke-linecap:square;stroke-miterlimit:3}
	]]>
	</style>

	<g>
		<title>Page-1</title>
		<g id="group2665-1" transform="translate(5.66929,-34.0157)">
			<title>O365 - API Twitter</title>
			<desc>This package will provide stencils to visually represent Power Platform: Power Bi, Power Apps, Power Virtual Agents and/or Power Automate devices, architectures or solutions diagrams. It will provide stencils to visually represent features, systems, processes and architectures that use these technologies.</desc>
			<g id="group2666-2">
				<title>Page-1</title>
				<g id="group2667-3">
					<title>Power Automate API: Twitter</title>
					<g id="group2668-4">
						<title>rect5924</title>
						<g id="shape2669-5">
							<title>Sheet.2669</title>
							<rect x="0" y="39.685" width="56.6929" height="56.6929" class="st1"/>
						</g>
					</g>
					<g id="group2670-7" transform="translate(11.3628,-12.4522)">
						<title>path5926</title>
						<g id="shape2671-8">
							<title>Sheet.2671</title>
							<path d="M38.32 68.82 A15.7145 15.7145 0 0 1 33.84 70.02 A7.85723 7.85723 -180 0 0 37.35 65.68 A15.7145
										 15.7145 0 0 1 32.4 67.61 A7.85723 7.85723 -180 0 0 18.97 74.74 A22.242 22.242 0 0 1 2.78
										 66.53 A7.85723 7.85723 -180 0 0 5.2 77.04 A7.85723 7.85723 0 0 1 1.69 76.07 A7.85723 7.85723
										 -180 0 0 7.98 83.81 L5.92 84.04 L4.47 84.04 A7.85723 7.85723 -180 0 0 11.85 89.49 A15.7145
										 15.7145 0 0 1 2.05 92.87 L0 92.87 A22.242 22.242 -180 0 0 12.09 96.38 C26.6 96.38 34.45
										 84.41 34.45 74.02 C34.45 73.7 34.45 73.38 34.45 73.05 A15.9562 15.9562 -180 0 0 38.32 68.82
										 Z" class="st2"/>
						</g>
					</g>
				</g>
			</g>
		</g>
	</g>
</svg>
